X:567
T:Paddy Whack
C:Rutherford, c.1775
M:6/8
L:1/8
S:Colin Hume's website,  colinhume.com  - chords can also be printed below the stave.
Q:3/8=110
K:G
P:A
|:D | "G"GBd "/"gfg | "C"edc "D7"BAG | "G"GBd "Em"geg | "D"fdd "/"d2 e/f/ |\
"Em"geg "Bm/D"fdB | "C"cec "G/B"dBG | "G"GBd "D7"cAc | "G"BGG "/"G2 :|
P:B
|: c | "G"[GB][GB][GB] "D7"[Ac][Ac][Ac] | "G"dBG "D7"A2G | "G"Bcd "Em"efg | "D"fdd "/"d2 e/f/ |\
"Em"geg "Bm/D"fdB | "C"cec "G/B"dBG | "G"GBd "D7"cAc | "G"BGG "/"G2 :|

